polaris-icons/icons/new-icons/DragDropMajor.svg

<svg width="20" height="20" viewBox="0 0 20 20" fill="none" xmlns="http://www.w3.org/2000/svg">
<path d="M6.25 3.5C4.73122 3.5 3.5 4.73122 3.5 6.25C3.5 6.66421 3.83579 7 4.25 7C4.66421 7 5 6.66421 5 6.25C5 5.55964 5.55964 5 6.25 5C6.66421 5 7 4.66421 7 4.25C7 3.83579 6.66421 3.5 6.25 3.5Z" fill="#4A4A4A"/>
<path d="M3.5 13.75C3.5 15.2688 4.73122 16.5 6.25 16.5C6.66421 16.5 7 16.1642 7 15.75C7 15.3358 6.66421 15 6.25 15C5.55964 15 5 14.4404 5 13.75C5 13.3358 4.66421 13 4.25 13C3.83579 13 3.5 13.3358 3.5 13.75Z" fill="#4A4A4A"/>
<path d="M13.75 3.5C15.2688 3.5 16.5 4.73122 16.5 6.25C16.5 6.66421 16.1642 7 15.75 7C15.3358 7 15 6.66421 15 6.25C15 5.55964 14.4404 5 13.75 5C13.3358 5 13 4.66421 13 4.25C13 3.83579 13.3358 3.5 13.75 3.5Z" fill="#4A4A4A"/>
<path d="M5 9C5 8.58579 4.66421 8.25 4.25 8.25C3.83579 8.25 3.5 8.58579 3.5 9V11C3.5 11.4142 3.83579 11.75 4.25 11.75C4.66421 11.75 5 11.4142 5 11V9Z" fill="#4A4A4A"/>
<path d="M11.75 4.25C11.75 4.66421 11.4142 5 11 5L9 5C8.58579 5 8.25 4.66421 8.25 4.25C8.25 3.83579 8.58579 3.5 9 3.5H11C11.4142 3.5 11.75 3.83579 11.75 4.25Z" fill="#4A4A4A"/>
<path d="M7.75 6C6.7835 6 6 6.7835 6 7.75V12.25C6 13.2165 6.7835 14 7.75 14H9C9.41421 14 9.75 13.6642 9.75 13.25C9.75 12.8358 9.41421 12.5 9 12.5H7.75C7.61193 12.5 7.5 12.3881 7.5 12.25V7.75C7.5 7.61193 7.61193 7.5 7.75 7.5H12.25C12.3881 7.5 12.5 7.61193 12.5 7.75V9C12.5 9.41421 12.8358 9.75 13.25 9.75C13.6642 9.75 14 9.41421 14 9V7.75C14 6.7835 13.2165 6 12.25 6H7.75Z" fill="#4A4A4A"/>
<path d="M11.0652 10.4594C10.895 10.4171 10.715 10.467 10.591 10.5911C10.467 10.7151 10.417 10.895 10.4593 11.0652L11.5806 15.5757C11.6241 15.7506 11.7584 15.8886 11.9321 15.9368C12.1058 15.985 12.292 15.936 12.4194 15.8086L13.5836 14.6444L14.4246 15.4854C14.6199 15.6806 14.9365 15.6806 15.1317 15.4854L15.4853 15.1318C15.6806 14.9365 15.6806 14.62 15.4853 14.4247L14.6443 13.5837L15.8085 12.4195C15.936 12.292 15.985 12.1058 15.9367 11.9322C15.8885 11.7585 15.7505 11.6242 15.5756 11.5807L11.0652 10.4594Z" fill="#4A4A4A"/>
</svg>

<svg viewBox="0 0 20 20" xmlns="http://www.w3.org/2000/svg"><path d="M6.25 3.5a2.75 2.75 0 0 0-2.75 2.75.75.75 0 0 0 1.5 0c0-.69.56-1.25 1.25-1.25a.75.75 0 0 0 0-1.5Z" fill="#5C5F62"/><path d="M3.5 13.75a2.75 2.75 0 0 0 2.75 2.75.75.75 0 0 0 0-1.5c-.69 0-1.25-.56-1.25-1.25a.75.75 0 0 0-1.5 0Z" fill="#5C5F62"/><path d="M13.75 3.5a2.75 2.75 0 0 1 2.75 2.75.75.75 0 0 1-1.5 0c0-.69-.56-1.25-1.25-1.25a.75.75 0 0 1 0-1.5Z" fill="#5C5F62"/><path d="M5 9a.75.75 0 0 0-1.5 0v2a.75.75 0 0 0 1.5 0v-2Z" fill="#5C5F62"/><path d="M11.75 4.25a.75.75 0 0 1-.75.75h-2a.75.75 0 0 1 0-1.5h2a.75.75 0 0 1 .75.75Z" fill="#5C5F62"/><path d="M7.75 6a1.75 1.75 0 0 0-1.75 1.75v4.5c0 .966.784 1.75 1.75 1.75h1.25a.75.75 0 0 0 0-1.5h-1.25a.25.25 0 0 1-.25-.25v-4.5a.25.25 0 0 1 .25-.25h4.5a.25.25 0 0 1 .25.25v1.25a.75.75 0 0 0 1.5 0v-1.25a1.75 1.75 0 0 0-1.75-1.75h-4.5Z" fill="#5C5F62"/><path d="M11.065 10.46a.5.5 0 0 0-.606.605l1.122 4.51a.5.5 0 0 0 .838.234l1.165-1.165.84.841a.5.5 0 0 0 .708 0l.353-.353a.5.5 0 0 0 0-.707l-.84-.841 1.164-1.165a.5.5 0 0 0-.233-.838l-4.51-1.122Z" fill="#5C5F62"/></svg>
